!!!COM: Palestrina, Giovanni Perluigi da
!!!OPR: Missa Nasce la gioia mia
!!!OMD: Credo
!!!OTL: Et in Spiritum
**kern	**kern	**kern	**kern	**kern	**kern
*Ibass	*Itenor	*Itenor	*Icalto	*Icant	*Icant
!Bassus	!Tenor 2	!Tenor 1	!Altus	!Cantus 2	!Cantus 1
*clefF4	*clefGv2	*clefGv2	*clefG2	*clefG2	*clefG2
*k[b-]	*k[b-]	*k[b-]	*k[b-]	*k[b-]	*k[b-]
*G:dor	*G:dor	*G:dor	*G:dor	*G:dor	*G:dor
*M4/2	*M4/2	*M4/2	*M4/2	*M4/2	*M4/2
=125	=125	=125	=125	=125	=125
1.G	0r	1.B	1.d	1.g	0r
2c	.	2c	2e	2g	.
=126	=126	=126	=126	=126	=126
2.B-	0r	2.d	2.f	2.b-	0r
4B-	.	4d	4f	4b-	.
2F	.	2c	2f	2a	.
[2G	.	[2B-	2d	[2g	.
=127	=127	=127	=127	=127	=127
2G]	0r	2B-]	2e-	2g]	0r
2D	.	2A	1d	2f#	.
2.E-	.	2.G	.	2.g	.
.	.	.	2c	.	.
4E-	.	4G	.	4g	.
=128	=128	=128	=128	=128	=128
1D	2r	1A	2d	2f#	2r
.	1d	.	1f#	1a	1dd
1r	.	1r	.	.	.
.	2g	.	2g	2b-	2dd
=129	=129	=129	=129	=129	=129
0r	2f	0r	2a	2cc	2ff
.	2d	.	2b-	2dd	2ff
.	1f	.	1a	1cc	1ff
=130	=130	=130	=130	=130	=130
0r	2c	2r	2g	1cc	2ee
.	2e	2.c	2.g	.	2.cc
.	2f	.	.	1r	.
.	.	4A	4a	.	4cc
.	[2d	2B-	2f	.	[2b-
=131	=131	=131	=131	=131	=131
2r	2d]	2G	1g	2r	2b-]
2.c	2e	2c	.	2.cc	2g
.	2c	2F	2.f	.	2a
4A	.	.	.	4cc	.
2B-	2d	2f	.	[2b-	2dd
.	.	.	4d	.	.
=132	=132	=132	=132	=132	=132
2G	2B-	2g	2d	2b-]	2dd
2C	2c	2e	2e	2g	2.cc
2F	[1A	2.f	2c	2.a	.
.	.	.	.	.	4f
2D	.	.	2d	.	2ff
.	.	8e	.	4a	.
.	.	8d	.	.	.
=133	=133	=133	=133	=133	=133
2A	2A]	2c#	2e	1a	2ee
2D	2.a	2d	2d	.	2.ff
2.F	.	[1A	2c	2a	.
.	4g	.	.	.	4ee
.	2f	.	[2a	2a	[2dd
4G	.	.	.	.	.
=134	=134	=134	=134	=134	=134
1A	1e	1A]	4a]	1a	2dd]
.	.	.	4g	.	.
.	.	.	2e	.	2cc#
1D	1d	2r	1f#	2a	2dd
.	.	[2d	.	[2a	[2dd
=135	=135	=135	=135	=135	=135
0r	0r	4d]	0r	4a]	4dd]
.	.	4e-	.	4g	4b-
.	.	2c	.	2g	2cc
.	.	2d	.	2f	2a
.	.	2d	.	2a	2f
=136	=136	=136	=136	=136	=136
1r	1r	2G	1r	2g	2b-
.	.	2A	.	2f	2a
2r	2r	[1c	2r	1e	2g
[2c	2e	.	2g	.	[2cc
=137	=137	=137	=137	=137	=137
2c]	2g	1c]	2e	0r	2cc]
2A	2a	.	2f	.	2cc
2B-	2f	1r	2d	.	2b-
2G	4e	.	[2g	.	2b-
.	4d	.	.	.	.
=138	=138	=138	=138	=138	=138
1C	1e	1r	2g]	1.cc	1g
.	.	.	2c	.	.
1F	2f	2r	2r	.	2a
.	2c	2f	2a	2a	2cc
=139	=139	=139	=139	=139	=139
0r	0r	2d	2f	2b-	2dd
.	.	2e-	2g	2.g	2b-
.	.	2.c	2.e-	.	2.cc
.	.	.	.	4g	.
.	.	.	.	[2cc	.
.	.	4c	4c	.	4cc
=140	=140	=140	=140	=140	=140
1r	1r	1G	1g	4cc]	1dd
.	.	.	.	4b	.
.	.	.	.	2b	.
2r	1g	1c	2e	1cc	2ee
[2c	.	.	[2g	.	[2ee
=141	=141	=141	=141	=141	=141
2c]	2e	0r	2g]	2.cc	2ee]
2A	2f	.	2a	.	2cc
.	.	.	.	4cc	.
2B-	1d	.	2f	2b-	2dd
2G	.	.	2g	2b-	2dd
=142	=142	=142	=142	=142	=142
1C	2c	0r	4e	1g	2ee
.	.	.	4f	.	.
.	1c	.	4g	.	2ee
.	.	.	4e	.	.
2F	.	.	2f	2a	2cc
2D	2d	.	[2a	2f	[2ff
=143	=143	=143	=143	=143	=143
2.F	0A	0r	2a]	0a	4ff]
.	.	.	.	.	4ee
.	.	.	2f	.	1dd
4G	.	.	.	.	.
1A	.	.	1e	.	.
.	.	.	.	.	2cc#
=144	=144	=144	=144	=144	=144
1D	1A	1r	1f#	1a	1dd
1r	1d	1G	1g	2r	1b
.	.	.	.	2g	.
=145	=145	=145	=145	=145	=145
0r	2d	2G	0r	2g	2b
.	2d	2G	.	2g	2b
.	2.e	1c	.	1g	1cc
.	4e	.	.	.	.
=146	=146	=146	=146	=146	=146
0r	2e	2c	0r	2g	2cc
.	1f	2F	.	2cc	2a
.	.	2.c	.	[1cc	2.g
.	2e	.	.	.	.
.	.	4c	.	.	4g
=147	=147	=147	=147	=147	=147
1C	1e	2c	2r	2cc]	2g
.	.	2c	2g	2cc	2g
2C	1e	2c	2g	1g	2cc
2C	.	2c	2cc	.	2cc
=148	=148	=148	=148	=148	=148
2.F	2f	2c	2.a	0r	2.cc
.	2f	2F	.	.	.
4F	.	.	4a	.	4cc
2F	2c	2A	2f	.	2cc
2BB-	2B-	2B-	2f	.	2dd
=149	=149	=149	=149	=149	=149
1.F	2A	2c	1.f	0r	2cc
.	2B-	2d	.	.	1b-
.	2c	1c	.	.	.
2F	2c	.	2f	.	2a
=150	=150	=150	=150	=150	=150
0BB-	1d	1B-	2f	2r	1b-
.	.	.	2d	2f	.
.	2r	1r	2.d	2.f	2r
.	2B-	.	.	.	2dd
.	.	.	4e	4e	.
=151	=151	=151	=151	=151	=151
0r	2.B-	0r	2f	2d	2.dd
.	.	.	1b-	2f	.
.	4A	.	.	.	4cc
.	2G	.	.	1g	2b-
.	2B-	.	[2g	.	2dd
=152	=152	=152	=152	=152	=152
0r	2c	0r	2g]	2a	2cc
.	2d	.	2f	2.b-	2b-
.	1e-	.	[1b-	.	4g
.	.	.	.	4a	4a
.	.	.	.	[2g	4b-
.	.	.	.	.	4cc
=153	=153	=153	=153	=153	=153
0r	1d	2r	2b-]	2g]	2dd
.	.	1d	2a	2f#	2dd
.	1r	.	2.f#	2.a	2.dd
.	.	2d	.	.	.
.	.	.	4f#	4a	4dd
=154	=154	=154	=154	=154	=154
0r	0r	2g	2g	2b	2dd
.	.	2c	2g	2cc	2ee-
.	.	1d	2f	[1a	1dd
.	.	.	2d	.	.
=155	=155	=155	=155	=155	=155
0r	0r	1d	2f	2a]	1a
.	.	.	2.a	2f	.
.	.	2c	.	2g	2cc
.	.	.	4g	.	.
.	.	2e-	[2g	2g	2cc
=156	=156	=156	=156	=156	=156
1r	1r	1d	2g]	1a	1dd
.	.	.	2f#	.	.
2r	2r	1G	1g	2b	1dd
[2G	[2d	.	.	[2b	.
=157	=157	=157	=157	=157	=157
2G]	2d]	0r	2r	2b]	0r
2G	2d	.	2g	2b	.
1c	1e	.	2g	2.cc	.
.	.	.	2c	.	.
.	.	.	.	4b-	.
=158	=158	=158	=158	=158	=158
1F	1f	0r	2c	1a	1r
.	.	.	1d	.	.
2.G	2.d	.	.	1g	2.b
.	.	.	2G	.	.
4G	4d	.	.	.	4b
=159	=159	=159	=159	=159	=159
2G	2d	2.G	2g	0r	2b
2G	2d	.	2g	.	2b
.	.	4G	.	.	.
1C	[1e-	2G	1g	.	1cc
.	.	2G	.	.	.
=160	=160	=160	=160	=160	=160
1C	1e-]	1c	2g	0r	1cc
.	.	.	2.g	.	.
[1G	1d	1B-	.	.	[1dd
.	.	.	4a	.	.
.	.	.	[2b-	.	.
=161	=161	=161	=161	=161	=161
2G]	2d	2G	2b-]	0r	2dd]
2F#	2d	2A	2a	.	2dd
1G	1d	1B-	1g	.	1dd
=162	=162	=162	=162	=162	=162
1D	1d	1A	2f	2r	2dd
.	.	.	2d	2a	2ff
1r	1r	1r	2f	2a	2ff
.	.	.	2g	2b	2dd
=163	=163	=163	=163	=163	=163
1r	1r	1r	1c	1cc	1ee-
1D	1f	2r	1d	[1a	1dd
.	.	2A	.	.	.
=164	=164	=164	=164	=164	=164
2F	2f	2A	1d	2a]	1dd
2G	2d	2B	.	2g	.
1C	1e-	1c	2r	1r	1r
.	.	.	[2g	.	.
=165	=165	=165	=165	=165	=165
1D	2d	1A	2g]	2r	2r
.	2d	.	2f#	1a	1dd
1D	2.d	1A	2f#	.	.
.	.	.	[2a	2f	2dd
.	4d	.	.	.	.
=166	=166	=166	=166	=166	=166
0r	1c	0r	4a]	1cc	1ee-
.	.	.	4g	.	.
.	.	.	1g	.	.
.	1d	.	.	1a	1dd
.	.	.	2f#	.	.
=167	=167	=167	=167	=167	=167
2r	1G	2r	2g	0g	1dd
2G	.	2d	2b-	.	.
2B-	1r	2d	2b-	.	2r
2c	.	2e	2g	.	2cc
=168	=168	=168	=168	=168	=168
1F	1r	1f	1a	1r	2cc
.	.	.	.	.	2a
[1G	2r	1d	[1g	2r	2.b-
.	2G	.	.	2b-	.
.	.	.	.	.	4cc
=169	=169	=169	=169	=169	=169
2G]	2B-	1G	1g]	2b-	2dd
2C	2c	.	.	2g	1cc
1r	1F	1r	2f	1a	.
.	.	.	2f	.	2a
=170	=170	=170	=170	=170	=170
0r	1G	1r	2e	2.g	2b-
.	.	.	1d	.	2b-
.	.	.	.	4f	.
.	1A	2r	.	2e	1a
.	.	2A	2c#	2e	.
=171	=171	=171	=171	=171	=171
1.D	2.f	2A	1d	4d	2.a
.	.	.	.	4e	.
.	.	2F	.	4f	.
.	4e	.	.	4g	4g
.	2d	2f	2r	2a	4f
.	.	.	.	.	4g
2D	2d	2f	2d	2f	4a
.	.	.	.	.	4b
=172	=172	=172	=172	=172	=172
0C	1G	0e-	4e-	1g	1cc
.	.	.	4d	.	.
.	.	.	4c	.	.
.	.	.	4d	.	.
.	2.c	.	4e-	1r	1g
.	.	.	4f	.	.
.	.	.	[2g	.	.
.	4B-	.	.	.	.
=173	=173	=173	=173	=173	=173
0D	0A	0d	2g]	0a	0dd
.	.	.	4f#	.	.
.	.	.	4e	.	.
.	.	.	1f#	.	.
=174	=174	=174	=174	=174	=174
0G	0G	0d	0g	0b	0dd
==	==	==	==	==	==
*-	*-	*-	*-	*-	*-
!!!CDT: 1525/^1526/-1594/2/2
!!!OCY: Italia
!!!AGN: Mass (Parody)
!!!AST: renaissance, vocal
!!!ASW: Madrigal 1565 (Primavera)
!!!PWK: Masses, Book 5
!!!RNB: Cadence finals: D
!!!YOR: Le Opere Complete, v. 15, p. 161
!!!YOO: Rome, Italy: Fratelli Scalera
!!!END: 1992//
!!!EED: John Miller
!!!YEC: Copyright 2000, John Miller
!!!YEN: United States of America
!!!YEM: Rights to all derivative electronic formats reserved.
!!!YEM: Refer to licensing agreement for further details.
!!!YEM: This file must be accompanied by the licensing agreement.
!!!YEM: A copy of the licensing agreement may be found at http://www.music-cog.ohio-state.edu/HumdrumDatabases/Palestrina/license.txt
!!!EMD: converted to Humdrum by Bret Aarden
